findly-builder/apps/searchassist/src/assets/icons/search-experience/dummy-image.svg

<svg width="32" height="28" viewBox="0 0 32 28" fill="none" xmlns="http://www.w3.org/2000/svg">
<path fill-rule="evenodd" clip-rule="evenodd" d="M3.625 0.5C1.77051 0.5 0.25 2.02051 0.25 3.875V24.125C0.25 25.9795 1.77051 27.5 3.625 27.5H28.375C30.2295 27.5 31.75 25.9795 31.75 24.125V3.875C31.75 2.02051 30.2295 0.5 28.375 0.5H3.625ZM3.625 2.75H28.375C29.0078 2.75 29.5 3.24219 29.5 3.875V20.2227L21.9911 12.2952C21.7895 12.0824 21.4489 12.0878 21.2542 12.307L17.2217 16.8477L10.8202 10.0975C10.6186 9.88484 10.2781 9.89042 10.0835 10.1095L2.5 18.6494V3.875C2.5 3.24219 2.99219 2.75 3.625 2.75ZM22.75 5C21.5107 5 20.5 6.01074 20.5 7.25C20.5 8.48926 21.5107 9.5 22.75 9.5C23.9893 9.5 25 8.48926 25 7.25C25 6.01074 23.9893 5 22.75 5ZM10.498 13.0244L22.0908 25.25H3.625C2.99219 25.25 2.5 24.7578 2.5 24.125V22.042L10.498 13.0244ZM21.6602 15.2305L29.5 23.4922V24.125C29.5 24.7578 29.0078 25.25 28.375 25.25H25.1846L18.7773 18.4824L21.6602 15.2305Z" fill="#EFF0F1"/>
</svg>

<svg width="32" height="28" fill="none" xmlns="http://www.w3.org/2000/svg"><path fill-rule="evenodd" clip-rule="evenodd" d="M3.625.5A3.387 3.387 0 0 0 .25 3.875v20.25A3.387 3.387 0 0 0 3.625 27.5h24.75a3.387 3.387 0 0 0 3.375-3.375V3.875A3.387 3.387 0 0 0 28.375.5H3.625Zm0 2.25h24.75A1.11 1.11 0 0 1 29.5 3.875v16.348l-7.509-7.928a.5.5 0 0 0-.737.012l-4.032 4.54-6.402-6.75a.5.5 0 0 0-.736.013L2.5 18.65V3.874A1.11 1.11 0 0 1 3.625 2.75ZM22.75 5c-1.24 0-2.25 1.01-2.25 2.25s1.01 2.25 2.25 2.25S25 8.49 25 7.25 23.99 5 22.75 5Zm-12.252 8.024L22.091 25.25H3.625A1.11 1.11 0 0 1 2.5 24.125v-2.083l7.998-9.018Zm11.162 2.207 7.84 8.261v.633a1.11 1.11 0 0 1-1.125 1.125h-3.19l-6.408-6.768 2.883-3.252Z" fill="#EFF0F1"/></svg>
